X: 18
T:Denis Murphy's Slide
M:12/8
L:1/8
R:Slide
K:D
dcB | A2 D FED F2 A A2 f | g2 e f2 d e2 d Bcd |
A2 D FED F2 A A2 f | a2 f efe d3 :| A | d2 e f3 gfe f3 |
gfe f2 d e2 d B2 A | d2 e f3 gfe f2 g
|1 a2 f efe d3  d2 :|2 A2 f efe d3 dcB ||
